X:1203
T:Jenny Tie Your Bonnet
O:ireland
R:reel
D:Michael Tubridy: The Eagle's Whistle
Z:id:hn-reel-345
M:C|
K:Amix
~A3g fdec|AGA=c BG~G2|~A3g fdef|1 ~g3d BGGB:|2 ~g3d BG~G2||
|:faaf gfed|(3cBA eA fAeA|faaf gfef|1 ~g3d BG~G2:|2 ~g3d BGGB||
